icons/mobile/24/svg/avatar-warning-circle-fill-multicolor-24.svg

<svg width="24" height="24" viewBox="0 0 24 24" fill="none" xmlns="http://www.w3.org/2000/svg">
<path fill-rule="evenodd" clip-rule="evenodd" d="M17.1803 12.7499C17.7704 11.7501 19.231 11.75 19.8199 12.7499L23.7907 19.4902C24.3385 20.42 23.7561 21.6167 22.6764 21.748C21.1284 21.935 19.7216 21.9999 18.4996 21.9999C16.9899 21.9999 15.5982 21.9009 14.3444 21.7499C13.2525 21.6179 12.656 20.4281 13.2096 19.4882L17.1803 12.7499ZM18.4996 18.9999C18.0856 19.0001 17.7496 19.3358 17.7496 19.7499C17.7496 20.164 18.0856 20.4998 18.4996 20.4999C18.9138 20.4999 19.2496 20.1641 19.2496 19.7499C19.2496 19.3357 18.9138 18.9999 18.4996 18.9999ZM18.4996 14.4999C18.0856 14.5001 17.7496 14.8358 17.7496 15.2499V16.9999C17.7496 17.414 18.0856 17.7498 18.4996 17.7499C18.9138 17.7499 19.2496 17.4141 19.2496 16.9999V15.2499C19.2496 14.8357 18.9138 14.4999 18.4996 14.4999Z" fill="#C52D4F"/>
<path d="M11 1C5.477 1 1 5.477 1 11C1 16.523 5.477 21 11 21C11.202 21 11.4 20.982 11.6 20.97C11.412 20.216 11.513 19.414 11.918 18.727L12.82 17.196L12.751 17.313C12.193 17.47 11.609 17.562 11 17.562C8.879 17.562 7.003 16.542 5.805 14.974C5.535 14.621 5.484 14.122 5.701 13.734C6.07 13.075 6.726 12.596 7.52 12.487C8.562 12.344 9.728 12.25 10.999 12.25C12.27 12.25 13.437 12.345 14.478 12.487C14.815 12.533 15.119 12.658 15.395 12.823L15.887 11.989C16.436 11.057 17.413 10.501 18.499 10.501C19.501 10.501 20.393 10.99 20.959 11.794C20.98 11.532 20.999 11.269 20.999 11.001C20.999 5.478 16.522 1.001 10.999 1.001L11 1ZM10.334 10.414C9.492 10.197 8.803 9.508 8.586 8.666C8.155 6.998 9.403 5.5 11 5.5C12.381 5.5 13.5 6.619 13.5 8C13.5 9.597 12.002 10.845 10.334 10.414Z" fill="black"/>
</svg>

<!-- This Source Code Form is subject to the terms of the Mozilla Public
   - License, v. 2.0. If a copy of the MPL was not distributed with this
   - file, You can obtain one at http://mozilla.org/MPL/2.0/. -->
<svg xmlns="http://www.w3.org/2000/svg" width="24" height="24" fill="none" viewBox="0 0 24 24">
    <path fill="#c52d4f" fill-rule="evenodd" d="M17.18 12.75c.59-1 2.051-1 2.64 0l3.97 6.74a1.506 1.506 0 0 1-1.114 2.258 35 35 0 0 1-8.332.002c-1.091-.132-1.688-1.322-1.134-2.262zM18.5 19a.75.75 0 1 0 0 1.5.75.75 0 0 0 0-1.5m0-4.5a.75.75 0 0 0-.75.75V17a.75.75 0 0 0 1.5 0v-1.75a.75.75 0 0 0-.75-.75" clip-rule="evenodd" />
    <path fill="#000" d="M11 1C5.477 1 1 5.477 1 11s4.477 10 10 10c.202 0 .4-.018.6-.03a2.98 2.98 0 0 1 .318-2.243l.902-1.531-.069.117a6.4 6.4 0 0 1-1.751.249c-2.121 0-3.997-1.02-5.195-2.588a1.15 1.15 0 0 1-.104-1.24 2.47 2.47 0 0 1 1.819-1.247 25.6 25.6 0 0 1 6.958 0c.337.046.641.171.917.336l.492-.834a3 3 0 0 1 2.612-1.488c1.002 0 1.894.489 2.46 1.293.021-.262.04-.525.04-.793 0-5.523-4.477-10-10-10zm-.666 9.414a2.47 2.47 0 0 1-1.748-1.748A2.505 2.505 0 0 1 11 5.5 2.5 2.5 0 0 1 13.5 8a2.505 2.505 0 0 1-3.166 2.414" />
</svg>
